X:1
T: The Brig o' Potarch
C:J. Scott Skinner
R:Strathspey
Q: 128
K:G
M:4/4
L:1/16
|:B2|G3F EB3 B,E3 G3B|A2B^c d3A FD3 D3F|G3F EB3 B,E3 G3A|B3e ^df3 eE3-E2B2|
G3F EB3 B,E3 G3B|A2B^c d3A FD3 D3F|G3F EB3 B,E3 G3A|B3e ^df3 eE3-E2B2|
e3g fg3 eb3 g3e|A2B^c d3A FD3-D3B|e3g fg3 eb3 g3e|B2^c^d e3B GE3 E3B|
efg2 fe^d2 e=dc2 BAG2|((3A2B2^c2) ((3d2A2G2) FD3 D3F|G3F EB3 B,E3 G3A|B3g fb3 ge3-e2:|
